images/3235397.svg

<?xml version="1.0" encoding="UTF-8"?>
<svg xmlns="http://www.w3.org/2000/svg" xmlns:xlink="http://www.w3.org/1999/xlink" width="300pt" height="300pt" viewBox="0 0 300 300" version="1.1">
<defs>
<g>
<symbol overflow="visible" id="glyph0-0">
<path style="stroke:none;" d="M 0.453125 1.59375 L 0.453125 -6.34375 L 4.953125 -6.34375 L 4.953125 1.59375 Z M 0.953125 1.09375 L 4.453125 1.09375 L 4.453125 -5.84375 L 0.953125 -5.84375 Z M 0.953125 1.09375 "/>
</symbol>
<symbol overflow="visible" id="glyph0-1">
<path style="stroke:none;" d="M 0.890625 -6.5625 L 2.078125 -6.5625 L 4.984375 -1.078125 L 4.984375 -6.5625 L 5.84375 -6.5625 L 5.84375 0 L 4.65625 0 L 1.75 -5.484375 L 1.75 0 L 0.890625 0 Z M 0.890625 -6.5625 "/>
</symbol>
<symbol overflow="visible" id="glyph0-2">
<path style="stroke:none;" d="M 3.546875 -5.953125 C 2.898438 -5.953125 2.382812 -5.710938 2 -5.234375 C 1.625 -4.753906 1.4375 -4.101562 1.4375 -3.28125 C 1.4375 -2.445312 1.625 -1.789062 2 -1.3125 C 2.382812 -0.832031 2.898438 -0.59375 3.546875 -0.59375 C 4.191406 -0.59375 4.703125 -0.832031 5.078125 -1.3125 C 5.453125 -1.789062 5.640625 -2.445312 5.640625 -3.28125 C 5.640625 -4.101562 5.453125 -4.753906 5.078125 -5.234375 C 4.703125 -5.710938 4.191406 -5.953125 3.546875 -5.953125 Z M 3.546875 -6.6875 C 4.460938 -6.6875 5.195312 -6.375 5.75 -5.75 C 6.300781 -5.132812 6.578125 -4.3125 6.578125 -3.28125 C 6.578125 -2.238281 6.300781 -1.410156 5.75 -0.796875 C 5.195312 -0.179688 4.460938 0.125 3.546875 0.125 C 2.617188 0.125 1.878906 -0.179688 1.328125 -0.796875 C 0.773438 -1.410156 0.5 -2.238281 0.5 -3.28125 C 0.5 -4.3125 0.773438 -5.132812 1.328125 -5.75 C 1.878906 -6.375 2.617188 -6.6875 3.546875 -6.6875 Z M 3.546875 -6.6875 "/>
</symbol>
<symbol overflow="visible" id="glyph0-3">
<path style="stroke:none;" d="M 0.890625 -6.5625 L 1.765625 -6.5625 L 1.765625 -3.875 L 5 -3.875 L 5 -6.5625 L 5.890625 -6.5625 L 5.890625 0 L 5 0 L 5 -3.125 L 1.765625 -3.125 L 1.765625 0 L 0.890625 0 Z M 0.890625 -6.5625 "/>
</symbol>
</g>
</defs>
<g id="surface41285">
<rect x="0" y="0" width="300" height="300" style="fill:rgb(100%,100%,100%);fill-opacity:1;stroke:none;"/>
<path style="fill:none;stroke-width:1.2;stroke-linecap:butt;stroke-linejoin:miter;stroke:rgb(0%,0%,0%);stroke-opacity:1;stroke-miterlimit:10;" d="M 35.25 188.238281 L 42.832031 181.523438 "/>
<path style="fill:none;stroke-width:1.2;stroke-linecap:butt;stroke-linejoin:miter;stroke:rgb(0%,0%,100%);stroke-opacity:1;stroke-miterlimit:10;" d="M 42.832031 181.523438 L 50.414062 174.8125 "/>
<path style="fill:none;stroke-width:1.2;stroke-linecap:butt;stroke-linejoin:miter;stroke:rgb(0%,0%,100%);stroke-opacity:1;stroke-miterlimit:10;" d="M 50.414062 174.8125 L 48.394531 164.886719 "/>
<path style="fill:none;stroke-width:1.2;stroke-linecap:butt;stroke-linejoin:miter;stroke:rgb(0%,0%,0%);stroke-opacity:1;stroke-miterlimit:10;" d="M 48.394531 164.886719 L 46.371094 154.964844 "/>
<path style="fill:none;stroke-width:1.2;stroke-linecap:butt;stroke-linejoin:miter;stroke:rgb(0%,0%,100%);stroke-opacity:1;stroke-miterlimit:10;" d="M 50.414062 174.8125 L 60.019531 178.019531 "/>
<path style="fill:none;stroke-width:1.2;stroke-linecap:butt;stroke-linejoin:miter;stroke:rgb(0%,0%,0%);stroke-opacity:1;stroke-miterlimit:10;" d="M 60.019531 178.019531 L 69.625 181.230469 "/>
<path style=" stroke:none;fill-rule:nonzero;fill:rgb(100%,100%,100%);fill-opacity:1;" d="M 47.414062 169.3125 L 54.414062 169.3125 L 54.414062 180.3125 L 47.414062 180.3125 Z M 47.414062 169.3125 "/>
<g style="fill:rgb(0%,0%,100%);fill-opacity:1;">
  <use xlink:href="#glyph0-1" x="47.414062" y="177.975586"/>
</g>
<path style="fill:none;stroke-width:1.2;stroke-linecap:butt;stroke-linejoin:miter;stroke:rgb(0%,0%,0%);stroke-opacity:1;stroke-miterlimit:10;" d="M 67.289062 181.707031 L 69.3125 191.628906 "/>
<path style="fill:none;stroke-width:1.2;stroke-linecap:butt;stroke-linejoin:miter;stroke:rgb(100%,0%,0%);stroke-opacity:1;stroke-miterlimit:10;" d="M 69.3125 191.628906 L 71.335938 201.554688 "/>
<path style="fill:none;stroke-width:1.2;stroke-linecap:butt;stroke-linejoin:miter;stroke:rgb(0%,0%,0%);stroke-opacity:1;stroke-miterlimit:10;" d="M 71.960938 180.753906 L 73.980469 190.679688 "/>
<path style="fill:none;stroke-width:1.2;stroke-linecap:butt;stroke-linejoin:miter;stroke:rgb(100%,0%,0%);stroke-opacity:1;stroke-miterlimit:10;" d="M 73.980469 190.679688 L 76.003906 200.601562 "/>
<path style="fill:none;stroke-width:1.2;stroke-linecap:butt;stroke-linejoin:miter;stroke:rgb(0%,0%,0%);stroke-opacity:1;stroke-miterlimit:10;" d="M 69.625 181.230469 L 84.789062 167.804688 "/>
<path style=" stroke:none;fill-rule:nonzero;fill:rgb(100%,100%,100%);fill-opacity:1;" d="M 69.667969 195.578125 L 77.667969 195.578125 L 77.667969 206.578125 L 69.667969 206.578125 Z M 69.667969 195.578125 "/>
<g style="fill:rgb(100%,0%,0%);fill-opacity:1;">
  <use xlink:href="#glyph0-2" x="69.667969" y="204.241211"/>
</g>
<path style="fill:none;stroke-width:1.2;stroke-linecap:butt;stroke-linejoin:miter;stroke:rgb(0%,0%,0%);stroke-opacity:1;stroke-miterlimit:10;" d="M 84.789062 167.804688 L 80.746094 147.960938 "/>
<path style="fill:none;stroke-width:1.2;stroke-linecap:butt;stroke-linejoin:miter;stroke:rgb(0%,0%,0%);stroke-opacity:1;stroke-miterlimit:10;" d="M 89.054688 164.871094 L 85.820312 148.992188 "/>
<path style="fill:none;stroke-width:1.2;stroke-linecap:butt;stroke-linejoin:miter;stroke:rgb(0%,0%,0%);stroke-opacity:1;stroke-miterlimit:10;" d="M 104 174.226562 L 84.789062 167.804688 "/>
<path style="fill:none;stroke-width:1.2;stroke-linecap:butt;stroke-linejoin:miter;stroke:rgb(0%,0%,0%);stroke-opacity:1;stroke-miterlimit:10;" d="M 80.746094 147.960938 L 95.910156 134.535156 "/>
<path style="fill:none;stroke-width:1.2;stroke-linecap:butt;stroke-linejoin:miter;stroke:rgb(0%,0%,0%);stroke-opacity:1;stroke-miterlimit:10;" d="M 95.910156 134.535156 L 115.117188 140.953125 "/>
<path style="fill:none;stroke-width:1.2;stroke-linecap:butt;stroke-linejoin:miter;stroke:rgb(0%,0%,0%);stroke-opacity:1;stroke-miterlimit:10;" d="M 96.320312 139.695312 L 111.6875 144.832031 "/>
<path style="fill:none;stroke-width:1.2;stroke-linecap:butt;stroke-linejoin:miter;stroke:rgb(0%,0%,0%);stroke-opacity:1;stroke-miterlimit:10;" d="M 115.117188 140.953125 L 119.164062 160.800781 "/>
<path style="fill:none;stroke-width:1.2;stroke-linecap:butt;stroke-linejoin:miter;stroke:rgb(0%,0%,0%);stroke-opacity:1;stroke-miterlimit:10;" d="M 115.117188 140.953125 L 130.285156 127.527344 "/>
<path style="fill:none;stroke-width:1.2;stroke-linecap:butt;stroke-linejoin:miter;stroke:rgb(0%,0%,0%);stroke-opacity:1;stroke-miterlimit:10;" d="M 119.164062 160.800781 L 104 174.226562 "/>
<path style="fill:none;stroke-width:1.2;stroke-linecap:butt;stroke-linejoin:miter;stroke:rgb(0%,0%,0%);stroke-opacity:1;stroke-miterlimit:10;" d="M 114.488281 158.574219 L 102.355469 169.316406 "/>
<path style="fill:none;stroke-width:1.2;stroke-linecap:butt;stroke-linejoin:miter;stroke:rgb(0%,0%,0%);stroke-opacity:1;stroke-miterlimit:10;" d="M 130.285156 127.527344 L 149.492188 133.949219 "/>
<path style="fill:none;stroke-width:1.2;stroke-linecap:butt;stroke-linejoin:miter;stroke:rgb(0%,0%,0%);stroke-opacity:1;stroke-miterlimit:10;" d="M 133.714844 123.652344 L 149.082031 128.789062 "/>
<path style="fill:none;stroke-width:1.2;stroke-linecap:butt;stroke-linejoin:miter;stroke:rgb(0%,0%,0%);stroke-opacity:1;stroke-miterlimit:10;" d="M 126.238281 107.683594 L 130.285156 127.527344 "/>
<path style="fill:none;stroke-width:1.2;stroke-linecap:butt;stroke-linejoin:miter;stroke:rgb(0%,0%,0%);stroke-opacity:1;stroke-miterlimit:10;" d="M 149.492188 133.949219 L 164.660156 120.523438 "/>
<path style="fill:none;stroke-width:1.2;stroke-linecap:butt;stroke-linejoin:miter;stroke:rgb(0%,0%,0%);stroke-opacity:1;stroke-miterlimit:10;" d="M 164.660156 120.523438 L 160.613281 100.675781 "/>
<path style="fill:none;stroke-width:1.2;stroke-linecap:butt;stroke-linejoin:miter;stroke:rgb(0%,0%,0%);stroke-opacity:1;stroke-miterlimit:10;" d="M 168.921875 117.585938 L 165.6875 101.710938 "/>
<path style="fill:none;stroke-width:1.2;stroke-linecap:butt;stroke-linejoin:miter;stroke:rgb(0%,0%,0%);stroke-opacity:1;stroke-miterlimit:10;" d="M 183.867188 126.945312 L 164.660156 120.523438 "/>
<path style="fill:none;stroke-width:1.2;stroke-linecap:butt;stroke-linejoin:miter;stroke:rgb(0%,0%,0%);stroke-opacity:1;stroke-miterlimit:10;" d="M 160.613281 100.675781 L 141.40625 94.257812 "/>
<path style="fill:none;stroke-width:1.2;stroke-linecap:butt;stroke-linejoin:miter;stroke:rgb(0%,0%,0%);stroke-opacity:1;stroke-miterlimit:10;" d="M 160.613281 100.675781 L 168.195312 93.964844 "/>
<path style="fill:none;stroke-width:1.2;stroke-linecap:butt;stroke-linejoin:miter;stroke:rgb(0%,0%,100%);stroke-opacity:1;stroke-miterlimit:10;" d="M 168.195312 93.964844 L 175.777344 87.25 "/>
<path style="fill:none;stroke-width:1.2;stroke-linecap:butt;stroke-linejoin:miter;stroke:rgb(0%,0%,0%);stroke-opacity:1;stroke-miterlimit:10;" d="M 141.40625 94.257812 L 126.238281 107.683594 "/>
<path style="fill:none;stroke-width:1.2;stroke-linecap:butt;stroke-linejoin:miter;stroke:rgb(0%,0%,0%);stroke-opacity:1;stroke-miterlimit:10;" d="M 143.046875 99.167969 L 130.914062 109.910156 "/>
<path style="fill:none;stroke-width:1.2;stroke-linecap:butt;stroke-linejoin:miter;stroke:rgb(0%,0%,100%);stroke-opacity:1;stroke-miterlimit:10;" d="M 175.777344 87.25 L 185.382812 90.460938 "/>
<path style="fill:none;stroke-width:1.2;stroke-linecap:butt;stroke-linejoin:miter;stroke:rgb(0%,0%,0%);stroke-opacity:1;stroke-miterlimit:10;" d="M 185.382812 90.460938 L 194.988281 93.671875 "/>
<path style="fill:none;stroke-width:1.2;stroke-linecap:butt;stroke-linejoin:miter;stroke:rgb(0%,0%,100%);stroke-opacity:1;stroke-miterlimit:10;" d="M 176.1875 92.414062 L 183.871094 94.980469 "/>
<path style="fill:none;stroke-width:1.2;stroke-linecap:butt;stroke-linejoin:miter;stroke:rgb(0%,0%,0%);stroke-opacity:1;stroke-miterlimit:10;" d="M 183.871094 94.980469 L 191.558594 97.550781 "/>
<path style=" stroke:none;fill-rule:nonzero;fill:rgb(100%,100%,100%);fill-opacity:1;" d="M 172.777344 81.75 L 179.777344 81.75 L 179.777344 92.75 L 172.777344 92.75 Z M 172.777344 81.75 "/>
<g style="fill:rgb(0%,0%,100%);fill-opacity:1;">
  <use xlink:href="#glyph0-1" x="172.777344" y="90.413086"/>
</g>
<path style="fill:none;stroke-width:1.2;stroke-linecap:butt;stroke-linejoin:miter;stroke:rgb(0%,0%,0%);stroke-opacity:1;stroke-miterlimit:10;" d="M 194.988281 93.671875 L 197.011719 103.59375 "/>
<path style="fill:none;stroke-width:1.2;stroke-linecap:butt;stroke-linejoin:miter;stroke:rgb(0%,0%,100%);stroke-opacity:1;stroke-miterlimit:10;" d="M 197.011719 103.59375 L 199.03125 113.519531 "/>
<path style="fill:none;stroke-width:1.2;stroke-linecap:butt;stroke-linejoin:miter;stroke:rgb(0%,0%,100%);stroke-opacity:1;stroke-miterlimit:10;" d="M 199.03125 113.519531 L 191.449219 120.230469 "/>
<path style="fill:none;stroke-width:1.2;stroke-linecap:butt;stroke-linejoin:miter;stroke:rgb(0%,0%,0%);stroke-opacity:1;stroke-miterlimit:10;" d="M 191.449219 120.230469 L 183.867188 126.945312 "/>
<path style="fill:none;stroke-width:1.2;stroke-linecap:butt;stroke-linejoin:miter;stroke:rgb(0%,0%,100%);stroke-opacity:1;stroke-miterlimit:10;" d="M 194.355469 111.292969 L 188.292969 116.664062 "/>
<path style="fill:none;stroke-width:1.2;stroke-linecap:butt;stroke-linejoin:miter;stroke:rgb(0%,0%,0%);stroke-opacity:1;stroke-miterlimit:10;" d="M 188.292969 116.664062 L 182.226562 122.03125 "/>
<path style=" stroke:none;fill-rule:nonzero;fill:rgb(100%,100%,100%);fill-opacity:1;" d="M 196.03125 108.019531 L 203.03125 108.019531 L 203.03125 119.019531 L 196.03125 119.019531 Z M 196.03125 108.019531 "/>
<g style="fill:rgb(0%,0%,100%);fill-opacity:1;">
  <use xlink:href="#glyph0-1" x="196.03125" y="116.682617"/>
</g>
<path style="fill:none;stroke-width:1.2;stroke-linecap:butt;stroke-linejoin:miter;stroke:rgb(0%,0%,0%);stroke-opacity:1;stroke-miterlimit:10;" d="M 183.867188 126.945312 L 185.890625 136.867188 "/>
<path style="fill:none;stroke-width:1.2;stroke-linecap:butt;stroke-linejoin:miter;stroke:rgb(0%,0%,100%);stroke-opacity:1;stroke-miterlimit:10;" d="M 185.890625 136.867188 L 187.914062 146.789062 "/>
<path style="fill:none;stroke-width:1.2;stroke-linecap:butt;stroke-linejoin:miter;stroke:rgb(0%,0%,100%);stroke-opacity:1;stroke-miterlimit:10;" d="M 187.914062 146.789062 L 197.515625 150 "/>
<path style="fill:none;stroke-width:1.2;stroke-linecap:butt;stroke-linejoin:miter;stroke:rgb(0%,0%,0%);stroke-opacity:1;stroke-miterlimit:10;" d="M 197.515625 150 L 207.121094 153.210938 "/>
<path style=" stroke:none;fill-rule:nonzero;fill:rgb(100%,100%,100%);fill-opacity:1;" d="M 180.914062 141.289062 L 194.914062 141.289062 L 194.914062 152.289062 L 180.914062 152.289062 Z M 180.914062 141.289062 "/>
<g style="fill:rgb(0%,0%,100%);fill-opacity:1;">
  <use xlink:href="#glyph0-1" x="180.914062" y="149.952148"/>
  <use xlink:href="#glyph0-3" x="187.891602" y="149.952148"/>
</g>
<path style="fill:none;stroke-width:1.2;stroke-linecap:butt;stroke-linejoin:miter;stroke:rgb(0%,0%,0%);stroke-opacity:1;stroke-miterlimit:10;" d="M 207.121094 153.210938 L 211.167969 173.054688 "/>
<path style="fill:none;stroke-width:1.2;stroke-linecap:butt;stroke-linejoin:miter;stroke:rgb(0%,0%,0%);stroke-opacity:1;stroke-miterlimit:10;" d="M 211.167969 173.054688 L 196 186.480469 "/>
<path style="fill:none;stroke-width:1.2;stroke-linecap:butt;stroke-linejoin:miter;stroke:rgb(0%,0%,0%);stroke-opacity:1;stroke-miterlimit:10;" d="M 212.808594 177.96875 L 200.675781 188.707031 "/>
<path style="fill:none;stroke-width:1.2;stroke-linecap:butt;stroke-linejoin:miter;stroke:rgb(0%,0%,0%);stroke-opacity:1;stroke-miterlimit:10;" d="M 230.375 179.476562 L 211.167969 173.054688 "/>
<path style="fill:none;stroke-width:1.2;stroke-linecap:butt;stroke-linejoin:miter;stroke:rgb(0%,0%,0%);stroke-opacity:1;stroke-miterlimit:10;" d="M 196 186.480469 L 200.046875 206.328125 "/>
<path style="fill:none;stroke-width:1.2;stroke-linecap:butt;stroke-linejoin:miter;stroke:rgb(0%,0%,0%);stroke-opacity:1;stroke-miterlimit:10;" d="M 200.046875 206.328125 L 219.253906 212.75 "/>
<path style="fill:none;stroke-width:1.2;stroke-linecap:butt;stroke-linejoin:miter;stroke:rgb(0%,0%,0%);stroke-opacity:1;stroke-miterlimit:10;" d="M 203.476562 202.449219 L 218.84375 207.585938 "/>
<path style="fill:none;stroke-width:1.2;stroke-linecap:butt;stroke-linejoin:miter;stroke:rgb(0%,0%,0%);stroke-opacity:1;stroke-miterlimit:10;" d="M 219.253906 212.75 L 234.421875 199.324219 "/>
<path style="fill:none;stroke-width:1.2;stroke-linecap:butt;stroke-linejoin:miter;stroke:rgb(0%,0%,0%);stroke-opacity:1;stroke-miterlimit:10;" d="M 234.421875 199.324219 L 230.375 179.476562 "/>
<path style="fill:none;stroke-width:1.2;stroke-linecap:butt;stroke-linejoin:miter;stroke:rgb(0%,0%,0%);stroke-opacity:1;stroke-miterlimit:10;" d="M 229.347656 198.289062 L 226.109375 182.414062 "/>
<path style="fill:none;stroke-width:1.2;stroke-linecap:butt;stroke-linejoin:miter;stroke:rgb(0%,0%,0%);stroke-opacity:1;stroke-miterlimit:10;" d="M 230.375 179.476562 L 237.957031 172.765625 "/>
<path style="fill:none;stroke-width:1.2;stroke-linecap:butt;stroke-linejoin:miter;stroke:rgb(100%,0%,0%);stroke-opacity:1;stroke-miterlimit:10;" d="M 237.957031 172.765625 L 245.539062 166.050781 "/>
<path style="fill:none;stroke-width:1.2;stroke-linecap:butt;stroke-linejoin:miter;stroke:rgb(100%,0%,0%);stroke-opacity:1;stroke-miterlimit:10;" d="M 245.539062 166.050781 L 255.144531 169.261719 "/>
<path style="fill:none;stroke-width:1.2;stroke-linecap:butt;stroke-linejoin:miter;stroke:rgb(0%,0%,0%);stroke-opacity:1;stroke-miterlimit:10;" d="M 255.144531 169.261719 L 264.75 172.472656 "/>
<path style=" stroke:none;fill-rule:nonzero;fill:rgb(100%,100%,100%);fill-opacity:1;" d="M 241.539062 160.550781 L 249.539062 160.550781 L 249.539062 171.550781 L 241.539062 171.550781 Z M 241.539062 160.550781 "/>
<g style="fill:rgb(100%,0%,0%);fill-opacity:1;">
  <use xlink:href="#glyph0-2" x="241.539062" y="169.213867"/>
</g>
</g>
</svg>

<svg xmlns="http://www.w3.org/2000/svg" xmlns:xlink="http://www.w3.org/1999/xlink" width="300pt" height="300pt" viewBox="0 0 300 300"><defs><symbol overflow="visible"><path d="M.453 1.594v-7.938h4.5v7.938zm.5-.5h3.5v-6.938h-3.5zm0 0"/></symbol><symbol overflow="visible" id="a"><path d="M.89-6.563H2.08l2.906 5.485v-5.484h.86V0H4.656L1.75-5.484V0H.89zm0 0"/></symbol><symbol overflow="visible" id="b"><path d="M3.547-5.953c-.65 0-1.164.242-1.547.72-.375.48-.563 1.13-.563 1.952 0 .835.188 1.49.563 1.967.383.48.898.72 1.547.72.644 0 1.156-.24 1.53-.72.376-.476.564-1.132.564-1.968 0-.822-.187-1.474-.562-1.954-.375-.477-.887-.72-1.53-.72zm0-.734c.914 0 1.648.312 2.203.937.55.617.828 1.438.828 2.47 0 1.042-.277 1.87-.828 2.483-.555.617-1.29.922-2.203.922-.93 0-1.668-.305-2.22-.922C.774-1.41.5-2.237.5-3.28c0-1.033.273-1.853.828-2.47.55-.625 1.29-.938 2.22-.938zm0 0"/></symbol><symbol overflow="visible" id="c"><path d="M.89-6.563h.876v2.688H5v-2.688h.89V0H5v-3.125H1.766V0H.89zm0 0"/></symbol></defs><g><path fill="#fff" d="M0 0h300v300H0z"/><path d="M35.25 188.238l7.582-6.715" stroke-width="1.2" stroke="#000" stroke-miterlimit="10" fill="none"/><path d="M42.832 181.523l7.582-6.71M50.414 174.813l-2.02-9.926" stroke-width="1.2" stroke="#00f" stroke-miterlimit="10" fill="none"/><path d="M48.395 164.887l-2.024-9.922" stroke-width="1.2" stroke="#000" stroke-miterlimit="10" fill="none"/><path d="M50.414 174.813l9.606 3.207" stroke-width="1.2" stroke="#00f" stroke-miterlimit="10" fill="none"/><path d="M60.02 178.02l9.605 3.21" stroke-width="1.2" stroke="#000" stroke-miterlimit="10" fill="none"/><path d="M47.414 169.313h7v11h-7zm0 0" fill="#fff"/><use xlink:href="#a" x="47.414" y="177.976" fill="#00f"/><path d="M67.29 181.707l2.022 9.922" stroke-width="1.2" stroke="#000" stroke-miterlimit="10" fill="none"/><path d="M69.313 191.63l2.023 9.925" stroke-width="1.2" stroke="#f00" stroke-miterlimit="10" fill="none"/><path d="M71.96 180.754l2.02 9.926" stroke-width="1.2" stroke="#000" stroke-miterlimit="10" fill="none"/><path d="M73.98 190.68l2.024 9.922" stroke-width="1.2" stroke="#f00" stroke-miterlimit="10" fill="none"/><path d="M69.625 181.23l15.164-13.425" stroke-width="1.2" stroke="#000" stroke-miterlimit="10" fill="none"/><path d="M69.668 195.578h8v11h-8zm0 0" fill="#fff"/><use xlink:href="#b" x="69.668" y="204.241" fill="#f00"/><path d="M84.79 167.805l-4.044-19.844M89.055 164.87l-3.235-15.878M104 174.227l-19.21-6.422M80.746 147.96l15.164-13.425M95.91 134.535l19.207 6.418M96.32 139.695l15.368 5.137M115.117 140.953l4.047 19.848M115.117 140.953l15.168-13.426M119.164 160.8L104 174.228M114.488 158.574l-12.133 10.742M130.285 127.527l19.207 6.422M133.715 123.652l15.367 5.137M126.238 107.684l4.047 19.843M149.492 133.95l15.168-13.427M164.66 120.523l-4.047-19.847M168.922 117.586l-3.234-15.875M183.867 126.945l-19.207-6.422M160.613 100.676l-19.207-6.418M160.613 100.676l7.582-6.71" stroke-width="1.2" stroke="#000" stroke-miterlimit="10" fill="none"/><path d="M168.195 93.965l7.582-6.715" stroke-width="1.2" stroke="#00f" stroke-miterlimit="10" fill="none"/><path d="M141.406 94.258l-15.168 13.426M143.047 99.168l-12.133 10.742" stroke-width="1.2" stroke="#000" stroke-miterlimit="10" fill="none"/><path d="M175.777 87.25l9.606 3.21" stroke-width="1.2" stroke="#00f" stroke-miterlimit="10" fill="none"/><path d="M185.383 90.46l9.605 3.212" stroke-width="1.2" stroke="#000" stroke-miterlimit="10" fill="none"/><path d="M176.188 92.414l7.683 2.566" stroke-width="1.2" stroke="#00f" stroke-miterlimit="10" fill="none"/><path d="M183.87 94.98l7.69 2.57" stroke-width="1.2" stroke="#000" stroke-miterlimit="10" fill="none"/><path d="M172.777 81.75h7v11h-7zm0 0" fill="#fff"/><use xlink:href="#a" x="172.777" y="90.413" fill="#00f"/><path d="M194.988 93.672l2.024 9.922" stroke-width="1.2" stroke="#000" stroke-miterlimit="10" fill="none"/><path d="M197.012 103.594l2.02 9.926M199.03 113.52l-7.58 6.71" stroke-width="1.2" stroke="#00f" stroke-miterlimit="10" fill="none"/><path d="M191.45 120.23l-7.583 6.715" stroke-width="1.2" stroke="#000" stroke-miterlimit="10" fill="none"/><path d="M194.355 111.293l-6.062 5.37" stroke-width="1.2" stroke="#00f" stroke-miterlimit="10" fill="none"/><path d="M188.293 116.664l-6.066 5.367" stroke-width="1.2" stroke="#000" stroke-miterlimit="10" fill="none"/><path d="M196.03 108.02h7v11h-7zm0 0" fill="#fff"/><use xlink:href="#a" x="196.031" y="116.683" fill="#00f"/><path d="M183.867 126.945l2.024 9.922" stroke-width="1.2" stroke="#000" stroke-miterlimit="10" fill="none"/><path d="M185.89 136.867l2.024 9.922M187.914 146.79l9.602 3.21" stroke-width="1.2" stroke="#00f" stroke-miterlimit="10" fill="none"/><path d="M197.516 150l9.605 3.21" stroke-width="1.2" stroke="#000" stroke-miterlimit="10" fill="none"/><path d="M180.914 141.29h14v11h-14zm0 0" fill="#fff"/><g fill="#00f"><use xlink:href="#a" x="180.914" y="149.952"/><use xlink:href="#c" x="187.892" y="149.952"/></g><path d="M207.12 153.21l4.048 19.845M211.168 173.055L196 186.48M212.81 177.97l-12.134 10.737M230.375 179.477l-19.207-6.422M196 186.48l4.047 19.848M200.047 206.328l19.207 6.422M203.477 202.45l15.367 5.136M219.254 212.75l15.168-13.426M234.422 199.324l-4.047-19.847M229.348 198.29l-3.24-15.876M230.375 179.477l7.582-6.71" stroke-width="1.2" stroke="#000" stroke-miterlimit="10" fill="none"/><path d="M237.957 172.766l7.582-6.715M245.54 166.05l9.605 3.212" stroke-width="1.2" stroke="#f00" stroke-miterlimit="10" fill="none"/><path d="M255.145 169.262l9.605 3.21" stroke-width="1.2" stroke="#000" stroke-miterlimit="10" fill="none"/><path d="M241.54 160.55h8v11h-8zm0 0" fill="#fff"/><use xlink:href="#b" x="241.539" y="169.214" fill="#f00"/></g></svg>
